X:499
L:1/8
M:2/4
K:D
 B/c/ | dDFD | dDD B/c/ | dDFD | eEE B/c/ | dDFD | dgfe | d/c/B/A/ Bc | dDD :: f/g/ | afge | 
 fd d/e/f/g/ | afgf | eEE f/g/ | afge | fdec | d/c/B/A/ B/d/c/e/ | dDD :|

